!!!OTL: 113. Skotshne
!!!Genre:	Skotshne
!!!Mode:	Altered Dorian
!!!Listening/dance:	dance
!!!:	*G:
!!!One_Mode:	no
**kern
*part1
*staff1
*clefG2
*k[b-]
*g:dor
*M2/4
(>16.cc#XLL
32eeJJk
=1
4.dd)
(>16.cc#XLL
32eeJJk
=2
4.dd)
(>16.cc#XLL
32eeJJk
=3
8dd)
8r
8dd
8r
=4
4dd
8r
16eeLL
16ddJJ
=5
16cc#XLL
16dd
16b-
16ddJJ
16cc#LL
16dd
16ee
16ddJJ
=6
16cc#XLL
16dd
16b-
16ddJJ
16cc#LL
16dd
16ee
16ddJJ
=7
16cc#XLL
16dd
16b-
16ddJJ
16cc#LL
16dd
16ee
16ddJJ
=8
(>16ddLL
16cc#X)
(>16cc#
16b-JJ)
(<16b-LL
16a)
(<16a
16gJJ)
=9
(>8qee/
2dd)
=10
2gg
=11
4bb-
4gg
=12
(>8qcc#X/
4dd)
8r
16eeLL
16ddJJ
=13
16cc#XLL
16dd
16b-
16ddJJ
16cc#LL
16dd
16ee
16ddJJ
=14
16cc#XLL
16dd
16b-
16ddJJ
16cc#LL
16dd
16ee
16ddJJ
=15
16cc#XLL
16dd
16b-
16ddJJ
16cc#LL
16dd
16ee
16ddJJ
=16
(>16ddLL
16cc#X)
(>16cc#
16b-JJ)
(<16b-LL
16aJ
8gJ)
=17
8r
8b-
(>8qdd/
8cc#XL)
8b-J
=18
(>8qdd/
8cc#XL)
8b-J
16b-LL
16aJ
8gJ
=19
(>8qee/
8ddL)
16gL
16aJJ
16b-LL
16aJ
8gJ
=20
8ddL
(>16cc#XL
16eeJJ
4dd)
=21
8r
8b-
8cc#XL
8b-J
=22
8cc#XL
8b-J
16b-LL
16aJ
8gJ
=23
8.b-L
16aJk
16b-LL
16a
16g
16f#XJJ
=24
4g
4dd
*>bM
*G:
=25||
*k[f#]
!LO:TX:a:i:t=G-major
24bLL
24cc
24bJJ
8g
24ccLL
24dd
24ccJJ
8a
=26
24bLL
24cc
24bJJ
8g
24ccLL
24dd
24ccJJ
8a
=27
8bL
16gL
16ddJJ
16ccLL
16b
16cc
16aJJ
=28
4g
4dd
=29
24bLL
24cc
24bJ
8ddJ
16ccLL
16b
16cc
16aJJ
=30
16bLL
16g
16b
16ddJJ
16ccLL
16b
16cc
16aJJ
=31
16bLL
16g
16b
16ddJJ
16ccLL
16b
16cc
16aJJ
=32
8g
8r
4dd
=33
2gg
=34
2gg
=35
4gg
4gg
=36
8ggL
8ddJ
8ggL
8ddJ
=37
24bLL
24cc
24bJJ
16gLL
16ddJJ
24ccLL
24dd
24ccJJ
16aLL
16ccJJ
=38
24bLL
24cc
24bJJ
16gLL
16ddJJ
24ccLL
24dd
24ccJJ
16aLL
16ccJJ
=39
8bL
16gL
16ddJJ
16ccLL
16b
16cc
16aJJ
=40
8g
8r
(>8qcc#X/
4dd)
=41
24bLL
24ccn
24bJJ
8g
24ccLL
24dd
24ccJJ
8a
=42
16bLL
16g
16b
16ddJJ
24ccLL
24dd
24ccJJ
8a
=43
16bLL
16g
16b
16ddJJ
16ccLL
16b
16cc
16aJJ
=44
8g
8r
4cc#X
=45
2dd
=46
2dd
=47
(>8qee/
4dd)
4gg
=48
(>8qee/
4dd)
8r
16eeLL
16ddJJ
*>eM
*g:dor
=49||
*k[b-]
!LO:TX:a:i:t=G-dorian
16cc#XLL
16dd
16b-
16ddJJ
16cc#LL
16dd
16ee
16ddJJ
=50
16cc#XLL
16dd
16b-
16ddJJ
16cc#LL
16dd
16ee
16ddJJ
=51
16cc#XLL
16dd
16b-
16ddJJ
16cc#LL
16dd
16ee
16ddJJ
=52
(>16ddLL
16cc#X)
(>16cc#
16b-JJ)
(<16b-LL
16a)
(<16a
16gJJ)
=53
2dd
=54
[2gg
=55
4gg]
4dd
=56
8b-L
(>8qee/
8ddJ)
16cc#XLL
16dd
16ee
16ddJJ
=57
16cc#XLL
16dd
16b-
16ddJJ
16cc#LL
16dd
16ee
16ddJJ
=58
16cc#XLL
16dd
16b-
16ddJJ
16cc#LL
16dd
16ee
16ddJJ
=59
16cc#XLL
16dd
16b-
16ddJJ
16cc#LL
16dd
16ee
16ddJJ
=60
(>16ddLL
16cc#X)
(>16cc#
16b-JJ)
(<16b-LL
16a)
(<16a
16gJJ)
=61
4gg
4dd
=62
2g
==
*-
